!!!OTL: 699b. Absage.
!!!ODT: 1880
!!!ARE: Europa, Mitteleuropa, Deutschland, Hessen, Dill - Kreis
!!!SCT: E0699B
!!!TXL: @@DE
!!!YEM: Copyright 1995, estate of Helmut Schaffrath.
**kern	**text
*ICvox	*
*M3/4	*
*k[b-]	*
*F:	*
!LO:TX:a:t=Mäßig bewegt.	!
!LO:TX:a:t=Aus dem Dillkreis 1880.	!
{8c	Willſt
8e	du
=1	=1
4g	mich
4b-	denn
8a	nicht
8g	mehr
=2	=2
8fL	lie-
8aJ	.
4cc}	-ben,
{8a	ei
8f	ſo
=3	=3
4g	kannſt
4b-	du's
8b-	laſ-
8g	-ſen
=4	=4
(4dd	ſein;
4cc)}	.
{8cc	werd
8cc	mich
=5	=5
8ccL	dei-
8ffJ	.
4ff	-ner
8cc	nicht
8b-	be-
=6	=6
8a/L	-trü-
8ccJ	.
4cc}	-ben,
{8cc	und
8a	kann
=7	=7
4g	le-
(8ddL	-ben
8ccJ)	.
8b-/	ganʒ
8g	al-
=8	=8
2f}	-lein.
==	==
!!!AGN: Liebes - Lied, Leid, Klage
!!!ONB: ESAC (Essen Associative Code) Database: ERK2
!!!AMT: simple triple
!!!AIN: vox
!!!EED: Helmut Schaffrath
!!!EEV: 1.0
!!!GTL: Liebeslieder [Neuere (aus dem 18. bis 19. Jahrh.) - Liebesleid] 678-740
!!!URL-scan: https://rosdok.uni-rostock.de/mcrviewer/recordIdentifier/rosdok_ppn745177662/iview2/phys_0503.iview2?x=193.8995864193107&y=300.31858446705155&scale=0.7029437510502773&rotation=0&layout=singlePageLayout
!!!ENC: Anna Maria Matuszewska
!!!EEV: 2024/12/16
*-	*-
